img/icons/dog_love_24x.svg

<svg width="63" height="63" viewBox="0 0 63 63" fill="none" xmlns="http://www.w3.org/2000/svg">
<path d="M60.0469 23.9585V25.2258C60.0469 29.2107 59.06 33.1336 57.1744 36.6441C55.2888 40.1547 52.5632 43.1436 49.2409 45.344L38.3906 52.5299L34.4531 55.1373L31.5 57.0938L30.5156 56.449L27.5625 54.5135L26.1475 53.5869L15.5371 46.636L14.143 45.723L13.8588 45.536C10.5087 43.3411 7.75774 40.3468 5.85386 36.8232C3.94998 33.2997 2.9531 29.3576 2.95313 25.3526V22.5065C2.9532 19.3799 3.84488 16.3181 5.52357 13.6804C6.84733 11.5995 8.67475 9.88636 10.8366 8.6995C12.9984 7.51265 15.4248 6.89049 17.891 6.89063H18.2638C20.5397 6.89073 22.7843 7.42071 24.8198 8.43859C26.8554 9.45647 28.626 10.9343 29.9914 12.755L31.5 14.7656L33.0086 12.755C34.4598 10.8199 36.3674 9.27387 38.5612 8.25491C40.755 7.23596 43.1669 6.77571 45.5818 6.91521C47.9966 7.0547 50.3395 7.7896 52.4014 9.05438C54.4632 10.3192 56.1801 12.0745 57.3989 14.1639C59.1324 17.1371 60.0461 20.5169 60.0469 23.9585V23.9585Z" fill="#5D62B5"/>
<path d="M34.4531 46.7578V55.125V55.1373L38.3906 52.5299V43.6816L34.4531 46.7578Z" fill="#EA9D2D"/>
<path d="M44.2969 20.6719V23.1328C44.297 23.456 44.2334 23.7761 44.1097 24.0747C43.9861 24.3733 43.8048 24.6446 43.5763 24.8732C43.3477 25.1017 43.0764 25.283 42.7778 25.4066C42.4792 25.5303 42.1591 25.5938 41.8359 25.5938H39.375V31.5L39.0147 32.4859L39.6383 33.4688L40.1182 37.0666C40.2362 37.9473 40.2733 38.837 40.2289 39.7245C40.1451 41.4114 39.4978 43.0214 38.3906 44.2969L34.4531 47.25V55.1373L31.5 57.0938L30.5156 56.449V49.2188L26.1474 53.5869L15.5371 46.636L23.625 35.4375L25.5937 32.4844L28.1716 29.9065L29.475 29.5875L29.5312 28.5469V25.8054C29.5314 23.1484 30.587 20.6003 32.4659 18.7216C33.1084 18.0797 33.9793 17.7191 34.8875 17.7188H37.0186C37.8974 17.7189 38.7401 18.0681 39.3615 18.6896L41.3437 20.6719H44.2969Z" fill="#FBB540"/>
<path d="M35.4375 20.6719H37.4062V22.6406H35.4375V20.6719Z" fill="#985713"/>
<path d="M39.6387 33.4686H38.2187C36.2375 33.466 34.2838 33.0049 32.5105 32.1213L28.1719 29.9064L29.5315 28.5468V28.3905L33.3989 30.3642C34.8963 31.1097 36.546 31.4985 38.2187 31.4999H39.3753L39.6387 33.4686Z" fill="#5D62B5"/>
<path d="M31.745 29.5312H29.5312V27.5625H31.745C31.941 27.5623 32.129 27.4843 32.2676 27.3456C32.4062 27.207 32.4842 27.019 32.4844 26.823V23.625H34.4531V26.823C34.4523 27.541 34.1667 28.2294 33.659 28.7371C33.1513 29.2448 32.463 29.5304 31.745 29.5312V29.5312Z" fill="#985713"/>
<path d="M31.5001 35.4375V37.4063C31.4999 38.1894 31.1887 38.9404 30.6349 39.4942C30.0811 40.048 29.3301 40.3592 28.5469 40.3594V43.94C28.5473 44.8147 28.2883 45.6699 27.8025 46.3973L26.5782 48.2344V51.1875L26.9362 51.9036L27.234 52.5004L27.5626 53.1562V54.5135L26.1475 53.5869L15.5372 46.636L14.1431 45.723L19.6876 37.4063V34.3252C19.6876 34.2501 19.6888 34.1738 19.6912 34.0987C19.7536 32.6591 20.2998 31.2826 21.2416 30.192L22.6407 28.5469L23.6251 32.4844H25.9821C26.4683 32.4844 26.9468 32.6044 27.3754 32.8339C27.8039 33.0634 28.1692 33.3952 28.4387 33.7997C28.7749 34.3035 29.2302 34.7165 29.7642 35.0022C30.2982 35.2878 30.8944 35.4374 31.5001 35.4375Z" fill="#E4E4E2"/>
<path d="M24.6094 35.4375H26.5781V37.4062H24.6094V35.4375Z" fill="#29C3BE"/>
</svg>

<svg width="63" height="63" fill="none" xmlns="http://www.w3.org/2000/svg">
  <path d="M60.047 23.959v1.267A24.13 24.13 0 0149.24 45.344L38.39 52.53l-3.938 2.607-2.953 1.957-.984-.645-2.953-1.935-1.415-.927-10.61-6.951-1.395-.913-.284-.187A24.129 24.129 0 012.953 25.353v-2.847c0-3.126.892-6.188 2.57-8.826a14.657 14.657 0 0112.368-6.79h.373a14.66 14.66 0 0111.727 5.865l1.509 2.01 1.509-2.01a14.66 14.66 0 0124.39 1.409 19.455 19.455 0 012.648 9.795z" fill="#5D62B5"/>
  <path d="M34.453 46.758V55.137l3.938-2.607v-8.848l-3.938 3.076z" fill="#EA9D2D"/>
  <path d="M44.297 20.672v2.46a2.46 2.46 0 01-2.461 2.462h-2.461V31.5l-.36.986.623.983.48 3.598c.118.88.155 1.77.11 2.657a7.546 7.546 0 01-1.837 4.573l-3.938 2.953v7.887L31.5 57.094l-.984-.645v-7.23l-4.369 4.368-10.61-6.951 8.088-11.199 1.969-2.953 2.578-2.578 1.303-.319.056-1.04v-2.742c0-2.657 1.056-5.205 2.935-7.083a3.428 3.428 0 012.422-1.003h2.13c.88 0 1.722.35 2.343.97l1.983 1.983h2.953z" fill="#FBB540"/>
  <path d="M35.438 20.672h1.968v1.969h-1.968v-1.97z" fill="#985713"/>
  <path d="M39.639 33.469h-1.42a12.837 12.837 0 01-5.709-1.348l-4.338-2.215 1.36-1.36v-.155l3.867 1.973a10.835 10.835 0 004.82 1.136h1.156l.264 1.969z" fill="#5D62B5"/>
  <path d="M31.745 29.531h-2.214v-1.968h2.214a.74.74 0 00.74-.74v-3.198h1.968v3.198a2.711 2.711 0 01-2.708 2.708z" fill="#985713"/>
  <path d="M31.5 35.438v1.968a2.954 2.954 0 01-2.953 2.953v3.581a4.42 4.42 0 01-.745 2.457l-1.224 1.837v2.953l.358.717.298.596.329.656v1.358l-1.415-.927-10.61-6.951-1.395-.913 5.545-8.317v-3.08c0-.076 0-.152.003-.227a6.401 6.401 0 011.55-3.907l1.4-1.645.984 3.937h2.357A2.951 2.951 0 0128.44 33.8a3.681 3.681 0 003.061 1.638z" fill="#E4E4E2"/>
  <path d="M24.61 35.438h1.968v1.968H24.61v-1.968z" fill="#29C3BE"/>
</svg>
